src/save-disk.svg

<?xml version="1.0" encoding="UTF-8" standalone="no"?>
<svg width="20px" height="20px" viewBox="0 0 20 20" version="1.1" xmlns="http://www.w3.org/2000/svg" xmlns:xlink="http://www.w3.org/1999/xlink">
    <!-- Generator: Sketch 3.7.2 (28276) - http://www.bohemiancoding.com/sketch -->
    <title>save-disk</title>
    <desc>Created with Sketch.</desc>
    <defs></defs>
    <g id="Page-1" stroke="none" stroke-width="1" fill="none" fill-rule="evenodd">
        <g id="save-disk" fill="#000000">
            <path d="M0,1.99079514 C0,0.891309342 0.894513756,0 1.99406028,0 L16,0 L20,4 L20,18.0059397 C20,19.1072288 19.1017876,20 18.0092049,20 L1.99079514,20 C0.891309342,20 0,19.1017876 0,18.0092049 L0,1.99079514 Z M5,2 L15,2 L15,8 L5,8 L5,2 Z M11,3 L14,3 L14,7 L11,7 L11,3 Z" id="Combined-Shape"></path>
        </g>
    </g>
</svg>

<svg xmlns="http://www.w3.org/2000/svg" viewBox="0 0 20 20"><path d="M0 2C0 .9.9 0 2 0h14l4 4v14a2 2 0 0 1-2 2H2a2 2 0 0 1-2-2V2zm5 0v6h10V2H5zm6 1h3v4h-3V3z"/></svg>
